svg/fluentui-system-icons/ic_fluent_link_edit_16_filled.svg

<svg width="16" height="16" viewBox="0 0 16 16" fill="none" xmlns="http://www.w3.org/2000/svg">
<path d="M10.2648 3H9.7487L9.64695 3.00684C9.28093 3.0565 8.99879 3.37022 8.99879 3.74983C8.99879 4.16394 9.33455 4.49965 9.7487 4.49965H10.2648L10.4176 4.50484C11.087 4.55042 11.676 4.8932 12.0548 5.40358C12.5124 5.10879 13.0435 4.97449 13.568 5.00067C12.9424 3.81113 11.6983 3 10.2648 3ZM10.9334 6.44305L9.8774 7.49896H5.74937C5.33523 7.49896 4.9995 7.16325 4.9995 6.74913C4.9995 6.36952 5.2816 6.0558 5.64762 6.00615L5.74937 5.9993H10.2486C10.5537 5.9993 10.8163 6.18152 10.9334 6.44305ZM13.194 6.01656C12.9322 6.05806 12.6789 6.16635 12.4617 6.34146C12.4617 6.34147 12.4617 6.34144 12.4617 6.34146C12.4183 6.37638 12.3765 6.414 12.3362 6.45423L8.99969 9.79049C8.99969 9.79051 8.99969 9.79047 8.99969 9.79049L8.04858 10.7416C7.69272 11.0974 7.44027 11.5433 7.31821 12.0315L7.01547 13.2424C6.9039 13.6886 7.30813 14.0928 7.75438 13.9813L8.96534 13.6785C9.45357 13.5565 9.89946 13.304 10.2553 12.9482L14.543 8.66083C15.1523 8.05149 15.1523 7.06357 14.543 6.45423C14.2441 6.1554 13.8542 6.00312 13.4625 5.9974C13.3727 5.99609 13.2829 6.00247 13.194 6.01656ZM6.24929 3H5.75167L5.55242 3.0052C3.57306 3.10877 2 4.7464 2 6.75143C2 8.82328 3.67968 10.5029 5.75167 10.5029H6.24929L6.35104 10.496C6.71705 10.4464 6.99916 10.1326 6.99916 9.75303C6.99916 9.33891 6.66343 9.0032 6.24929 9.0032H5.75167L5.59749 8.998C4.4257 8.91878 3.49975 7.94323 3.49975 6.75143C3.49975 5.50781 4.50797 4.49965 5.75167 4.49965H6.24929L6.35104 4.49281C6.71705 4.44316 6.99916 4.12943 6.99916 3.74983C6.99916 3.33571 6.66343 3 6.24929 3Z" fill="#212121"/>
</svg>

<svg xmlns="http://www.w3.org/2000/svg" width="16" height="16"><path d="M10.265 3h-.516l-.102.007A.75.75 0 0 0 9.749 4.5h.516l.153.005a2.224 2.224 0 0 1 1.637.899 2.55 2.55 0 0 1 1.513-.403A3.73 3.73 0 0 0 10.265 3Zm.668 3.443L9.877 7.5H5.75a.75.75 0 0 1-.101-1.493l.1-.007h4.5a.75.75 0 0 1 .684.444Zm2.261-.426c-.262.041-.515.15-.732.324a1.577 1.577 0 0 0-.126.113L9 9.79l-.951.952a2.776 2.776 0 0 0-.73 1.29l-.304 1.21a.61.61 0 0 0 .74.74l1.21-.303a2.776 2.776 0 0 0 1.29-.73l4.288-4.288a1.56 1.56 0 0 0-1.349-2.644ZM6.249 3h-.497l-.2.005a3.752 3.752 0 0 0 .2 7.498h.497l.102-.007a.75.75 0 0 0-.102-1.493h-.497l-.155-.005A2.252 2.252 0 0 1 5.752 4.5h.497l.102-.007A.75.75 0 0 0 6.249 3Z"/></svg>
